src/static/images/pdf_processing/rotate_file.svg

<svg width="25" height="25" viewBox="0 0 25 25" fill="none" xmlns="http://www.w3.org/2000/svg">
<g id="Group 9">
<rect id="Rectangle 7" width="25" height="25" rx="2" fill="#D9D9D9"/>
<path id="Vector" d="M10.1429 21C9.0119 21 7.95258 20.7851 6.96488 20.3554C5.97718 19.9256 5.11766 19.345 4.38631 18.6137C3.65496 17.8823 3.0744 17.0228 2.64464 16.0351C2.21488 15.0474 2 13.9881 2 12.8571C2 10.5952 2.79167 8.67262 4.375 7.08929C5.95833 5.50595 7.88095 4.71429 10.1429 4.71429H10.2786L8.87619 3.3119L10.1429 2L13.7619 5.61905L10.1429 9.2381L8.87619 7.92619L10.2786 6.52381H10.1429C8.37857 6.52381 6.88194 7.13829 5.65298 8.36726C4.42401 9.59623 3.80952 11.0929 3.80952 12.8571C3.80952 14.6214 4.42401 16.1181 5.65298 17.347C6.88194 18.576 8.37857 19.1905 10.1429 19.1905C10.6706 19.1905 11.1909 19.1264 11.7036 18.9982C12.2163 18.87 12.7063 18.6778 13.1738 18.4214L14.4857 19.7333C13.8373 20.1556 13.1437 20.4722 12.4048 20.6833C11.6659 20.8944 10.9119 21 10.1429 21ZM15.5714 18.2857L10.1429 12.8571L15.5714 7.42857L21 12.8571L15.5714 18.2857ZM15.5714 15.7071L18.4214 12.8571L15.5714 10.0071L12.7214 12.8571L15.5714 15.7071Z" fill="black"/>
</g>
</svg>

<svg width="25" height="25" fill="none" xmlns="http://www.w3.org/2000/svg"><rect width="25" height="25" rx="2" fill="#D9D9D9"/><path d="M10.143 21a7.879 7.879 0 0 1-3.178-.645 8.278 8.278 0 0 1-2.579-1.741 8.278 8.278 0 0 1-1.741-2.579A7.878 7.878 0 0 1 2 12.857c0-2.262.792-4.184 2.375-5.768 1.583-1.583 3.506-2.375 5.768-2.375h.136L8.876 3.312 10.143 2l3.619 3.619-3.62 3.62-1.266-1.313 1.403-1.402h-.136c-1.764 0-3.261.614-4.49 1.843-1.229 1.23-1.843 2.726-1.843 4.49 0 1.764.614 3.261 1.843 4.49s2.726 1.843 4.49 1.843a6.41 6.41 0 0 0 1.56-.192 6.145 6.145 0 0 0 1.47-.577l1.313 1.312a7.636 7.636 0 0 1-2.081.95 8.195 8.195 0 0 1-2.262.317Zm5.428-2.714-5.428-5.429L15.57 7.43 21 12.857l-5.429 5.429Zm0-2.579 2.85-2.85-2.85-2.85-2.85 2.85 2.85 2.85Z" fill="#000"/></svg>
